X:70
T:Militia Dance, The
M:6/8
L:1/8
B:Thompson's Compleat Collection of 200 Favourite Country Dances, vol. 2 (London, 1765)
Z:Transcribed and edited by Flynn Titford-Mock, 2007
Z:abc's:AK/Fiddler's Companion
K:A
a2a agf | e2e edc | fdB ecA | dBG Ace | a2a agf | e2e e2a | gbg af^d | e3 E2 :|
|: e2e ece | faf ecA | A2(e e)cA | Ge(B B)GE | A2(e e)ce | faf edc | fdB ecA | dBG A3 :|

